dist/imgs/atlasian-logo.svg

<svg width="21" height="20" viewBox="0 0 21 20" fill="none" xmlns="http://www.w3.org/2000/svg">
<path d="M6.42651 9.23898C6.33474 9.11916 6.19924 9.04058 6.04967 9.02043C5.9001 9.00028 5.74864 9.0402 5.62843 9.13146C5.55771 9.18723 5.50066 9.25842 5.46165 9.3396L0.561511 19.1426C0.492109 19.2815 0.480709 19.4423 0.529818 19.5897C0.578927 19.737 0.684526 19.8588 0.823403 19.9283C0.90458 19.9694 0.994325 19.9906 1.0853 19.9903H7.9124C8.02175 19.9931 8.12954 19.964 8.22257 19.9064C8.31561 19.8489 8.38984 19.7655 8.43619 19.6664C9.90967 16.6229 9.01648 11.9957 6.42651 9.23898Z" fill="url(#paint0_linear_10_1029)"/>
<path d="M10.0282 0.318096C8.80661 2.19786 8.0947 4.36289 7.96228 6.60078C7.82986 8.83867 8.28147 11.0726 9.27281 13.0833L12.5644 19.6664C12.613 19.7637 12.6878 19.8455 12.7803 19.9027C12.8728 19.9599 12.9794 19.9903 13.0882 19.9903H19.9139C19.9909 19.9905 20.0671 19.9755 20.1383 19.9461C20.2094 19.9167 20.2741 19.8736 20.3285 19.8191C20.383 19.7647 20.4261 19.7001 20.4555 19.6289C20.4849 19.5577 20.4999 19.4815 20.4997 19.4045C20.4998 19.3137 20.479 19.2241 20.4391 19.1426L11.0247 0.31534C10.98 0.220998 10.9095 0.141281 10.8213 0.0854577C10.7331 0.0296347 10.6308 0 10.5264 0C10.4221 0 10.3198 0.0296347 10.2316 0.0854577C10.1434 0.141281 10.0728 0.220998 10.0282 0.31534V0.318096Z" fill="#2684FF"/>
<defs>
<linearGradient id="paint0_linear_10_1029" x1="9.124" y1="10.7373" x2="3.94957" y2="19.6995" gradientUnits="userSpaceOnUse">
<stop stop-color="#0052CC"/>
<stop offset="0.92" stop-color="#2684FF"/>
</linearGradient>
</defs>
</svg>

<svg width="21" height="20" fill="none" xmlns="http://www.w3.org/2000/svg"><path d="M6.427 9.239a.57.57 0 00-.799-.108.591.591 0 00-.166.209l-4.9 9.803a.586.586 0 00.523.847h6.827a.562.562 0 00.524-.324c1.474-3.043.58-7.67-2.01-10.427z" fill="url(#paint0_linear_10_1029)"/><path d="M10.028.318a12.932 12.932 0 00-.755 12.765l3.291 6.583a.586.586 0 00.524.324h6.826a.584.584 0 00.586-.585.61.61 0 00-.06-.262L11.024.315a.551.551 0 00-.997 0v.003z" fill="#2684FF"/><defs><linearGradient id="paint0_linear_10_1029" x1="9.124" y1="10.737" x2="3.95" y2="19.7" gradientUnits="userSpaceOnUse"><stop stop-color="#0052CC"/><stop offset=".92" stop-color="#2684FF"/></linearGradient></defs></svg>
